src/topics/icons/unitjs.svg

<svg height="269" preserveAspectRatio="xMidYMid" viewBox="0 0 256 269" width="256" xmlns="http://www.w3.org/2000/svg" xmlns:xlink="http://www.w3.org/1999/xlink"><defs><path id="a" d="m139.789 0-2.48 1.431v20.399l-95.893 55.364v14.061l-8.219-14.061-33.197 56.795h23.577v67.295l116.212 67.095 116.211-67.095v-134.189z"/><mask id="b" fill="#fff"><use fill="#fff" xlink:href="#a"/></mask></defs><use fill="#a4d43a" xlink:href="#a"/><path d="m35.577 73.823 104.212-60.167 104.211 60.167v120.333l-104.211 60.166-104.212-60.166z" fill="#62655d" mask="url(#b)"/><path d="m139.789 20.398-98.373 56.796v113.591l98.373 56.795z" fill="#3f4238" mask="url(#b)"/><path d="m139.789 0-2.48 1.431v20.63l2.88-1.663 98.372 56.796v113.591l-98.372 56.795-98.373-56.795v-56.796h24.579l-33.198-56.795-33.197 56.795h23.577v67.295l116.212 67.095 116.211-67.095v-134.189z" fill="#a4d43a" mask="url(#b)"/><path d="m78.327 139.189 47.729-19.998s10.092 34.155 15.199 40.263c42.93-65.728 83.46-81.06 83.46-81.06v51.196s-40.216 20.477-87.46 72.527c-25.664-45.129-58.928-62.928-58.928-62.928" fill="#f7f7f7" mask="url(#b)"/></svg>

<?xml version="1.0" encoding="UTF-8" standalone="no"?>
<svg width="256px" height="269px" viewBox="0 0 256 269" version="1.1" xmlns="http://www.w3.org/2000/svg" xmlns:xlink="http://www.w3.org/1999/xlink" preserveAspectRatio="xMidYMid">
    <defs>
        <path id="path-1" d="M139.789,0 L137.309,1.431 L137.309,21.83 L41.416,77.194 L41.416,91.255 L33.197,77.194 L0,133.989 L23.577,133.989 L23.577,201.284 L139.789,268.379 L256,201.284 L256,67.095 L139.789,0"></path>
    </defs>
	<g>
		<mask id="mask-2" fill="white">
			<use xlink:href="#path-1"></use>
		</mask>
		<use id="Mask" fill="#A4D43A" xlink:href="#path-1"></use>
		<path d="M35.577,73.823 L139.789,13.656 L244,73.823 L244,194.156 L139.789,254.322 L35.577,194.156 L35.577,73.823" id="Fill-2" fill="#62655D" mask="url(#mask-2)"></path>
		<path d="M139.789,20.398 L41.416,77.194 L41.416,190.785 L139.789,247.58 L139.789,20.398" id="Fill-3" fill="#3F4238" mask="url(#mask-2)"></path>
		<path d="M139.789,0 L137.309,1.431 L137.309,22.061 L140.189,20.398 L238.561,77.194 L238.561,190.785 L140.189,247.58 L41.816,190.785 L41.816,133.989 L66.395,133.989 L33.197,77.194 L0,133.989 L23.577,133.989 L23.577,201.284 L139.789,268.379 L256,201.284 L256,67.095 L139.789,0" id="Fill-4" fill="#A4D43A" mask="url(#mask-2)"></path>
		<path d="M78.327,139.189 L126.056,119.191 C126.056,119.191 136.148,153.346 141.255,159.454 C184.185,93.726 224.715,78.394 224.715,78.394 L224.715,129.59 C224.715,129.59 184.499,150.067 137.255,202.117 C111.591,156.988 78.327,139.189 78.327,139.189" id="Fill-5" fill="#F7F7F7" mask="url(#mask-2)"></path>
	</g>
</svg>
